wp-content/uploads/sites/3/2021/11/logo-1.svg

<svg xmlns="http://www.w3.org/2000/svg" width="207" height="50" viewBox="0 0 207 50" fill="none"><path d="M25 0H0V25H25V0Z" fill="#00A775"></path><path d="M50 0H25V25H50V0Z" fill="#38C660"></path><path d="M50 25H25V50H50V25Z" fill="#00A775"></path><path d="M25 25H0V50H25V25Z" fill="#16705A"></path><path d="M68.374 13.252H73.0889L79.3477 29.9863H79.4307L85.7061 13.252H90.4209V35H86.7852V27.5957L87.1504 18.166L87.0508 18.1494L80.5928 35H78.1689L71.7441 18.1826L71.6445 18.1992L72.0098 27.5957V35H68.374V13.252ZM100.183 35.3486C98.4007 35.3486 97.0339 34.7897 96.082 33.6719C95.1302 32.543 94.6543 30.833 94.6543 28.542V18.8633H98.2734V28.5586C98.2734 29.9531 98.4893 30.9437 98.9209 31.5303C99.3636 32.1058 100.066 32.3936 101.029 32.3936C102.723 32.3936 103.929 31.7793 104.648 30.5508V18.8633H108.284V35.0332H105.113L104.798 32.6758C103.724 34.4577 102.186 35.3486 100.183 35.3486ZM115.938 11.6914V35H112.318V11.6914H115.938ZM120.901 14.9453H124.537V18.8633H127.442V21.5527H124.537V30.4844C124.537 31.724 125.063 32.3438 126.114 32.3438C126.535 32.3438 126.911 32.2773 127.243 32.1445L127.625 34.8174C126.95 35.1715 126.136 35.3486 125.185 35.3486C122.329 35.3486 120.901 33.7272 120.901 30.4844V21.5527H118.444V18.8633H120.901V14.9453ZM134.531 18.8301V35H130.912V18.8301H134.531ZM134.531 11.6914V14.8789H130.912V11.6914H134.531Z" fill="#00A775"></path><path d="M147.68 25.1055H142.699V32.0947H147.265C148.537 32.0947 149.506 31.8125 150.17 31.248C150.845 30.6725 151.183 29.8424 151.183 28.7578C151.183 26.3229 150.015 25.1055 147.68 25.1055ZM142.699 16.1572V22.3994H146.7C147.851 22.3994 148.748 22.1338 149.39 21.6025C150.032 21.0713 150.353 20.3187 150.353 19.3447C150.353 17.2197 149.002 16.1572 146.302 16.1572H142.699ZM147.265 35H139.063V13.252H146.302C148.759 13.252 150.651 13.75 151.979 14.7461C153.308 15.7422 153.972 17.2197 153.972 19.1787C153.972 20.1637 153.689 21.0436 153.125 21.8184C152.561 22.5931 151.775 23.1742 150.768 23.5615C152.051 23.8493 153.042 24.4635 153.739 25.4043C154.448 26.334 154.802 27.4518 154.802 28.7578C154.802 30.7832 154.143 32.3327 152.826 33.4062C151.509 34.4688 149.655 35 147.265 35ZM162.787 35.3486C161.116 35.3486 159.826 34.9225 158.919 34.0703C158.011 33.207 157.558 32.0007 157.558 30.4512C157.558 28.8906 158.172 27.6787 159.4 26.8154C160.629 25.9521 162.372 25.5205 164.63 25.5205H167.452V24.0928C167.452 23.2406 167.203 22.5765 166.705 22.1006C166.207 21.6247 165.515 21.3867 164.63 21.3867C163.756 21.3867 163.069 21.5859 162.571 21.9844C162.084 22.3717 161.841 22.8864 161.841 23.5283H158.338L158.321 23.4453C158.255 22.1283 158.836 20.9883 160.064 20.0254C161.293 19.0514 162.87 18.5645 164.796 18.5645C166.722 18.5645 168.249 19.0514 169.378 20.0254C170.507 20.9883 171.071 22.3551 171.071 24.126V31.3145C171.071 32.6426 171.265 33.8822 171.652 35.0332L167.967 35.0498C167.701 34.2087 167.535 33.4173 167.469 32.6758C166.938 33.4727 166.268 34.1201 165.46 34.6182C164.652 35.1051 163.761 35.3486 162.787 35.3486ZM161.177 30.418H161.193C161.193 31.0488 161.393 31.5413 161.791 31.8955C162.201 32.2497 162.815 32.4268 163.634 32.4268C164.453 32.4268 165.228 32.2054 165.958 31.7627C166.688 31.32 167.181 30.7943 167.436 30.1855V27.7949H164.547C163.529 27.7949 162.71 28.0495 162.09 28.5586C161.481 29.0566 161.177 29.6764 161.177 30.418ZM183.091 18.5312C184.817 18.5312 186.14 19.0514 187.059 20.0918C187.988 21.1322 188.453 22.7148 188.453 24.8398V35H184.817V24.873C184.817 23.6667 184.568 22.8034 184.07 22.2832C183.583 21.763 182.814 21.5029 181.763 21.5029C180.368 21.5029 179.278 22.0895 178.492 23.2627V35H174.856V18.8301L178.177 18.8467L178.393 21.1875C179.51 19.4167 181.076 18.5312 183.091 18.5312ZM195.857 27.9277V35H192.238V11.6914H195.857V25.0225H197.368L201.452 18.8301H205.719L200.39 26.1846L206.516 35H202.299L197.484 27.9277H195.857Z" fill="#16705A"></path></svg>

<?xml version="1.0" encoding="UTF-8"?>
<svg id="Layer_1" data-name="Layer 1" xmlns="http://www.w3.org/2000/svg" viewBox="0 0 205 50">
  <defs>
    <style>
      .cls-1, .cls-2, .cls-3 {
        stroke-width: 0px;
      }

      .cls-1, .cls-4 {
        fill: #16705a;
      }

      .cls-5 {
        font-family: OxaniumRoman-Medium, Oxanium;
        font-size: 47.53px;
        font-variation-settings: 'wght' 500;
        font-weight: 500;
      }

      .cls-2, .cls-6 {
        fill: #00a775;
      }

      .cls-3 {
        fill: #38c660;
      }
    </style>
  </defs>
  <path class="cls-2" d="M25,0H0v25h25V0Z"/>
  <path class="cls-3" d="M50,0h-25v25h25V0Z"/>
  <path class="cls-2" d="M50,25h-25v25h25v-25Z"/>
  <path class="cls-1" d="M25,25H0v25h25v-25Z"/>
  <text class="cls-5" transform="translate(55 40.16) scale(.84 1)"><tspan class="cls-6" x="0" y="0">WEX</tspan><tspan class="cls-4" x="101.9" y="0">ICO</tspan></text>
</svg>
